assets/img/frame10.svg

<svg width="1465" height="662" viewBox="0 0 1465 662" fill="none" xmlns="http://www.w3.org/2000/svg">
<path d="M62.5 170C62.5 165.858 65.8579 162.5 70 162.5H455C459.142 162.5 462.5 165.858 462.5 170V473.526C462.5 477.668 459.142 481.026 455 481.026H70C65.8579 481.026 62.5 477.668 62.5 473.526V170Z" stroke="#BB86FC" stroke-width="5"/>
<path d="M211.766 541.5L217.838 481.5H306.017L316.047 541.5H211.766Z" stroke="#BB86FC" stroke-width="5"/>
<path d="M176.697 542.987C176.697 542.159 177.368 541.487 178.197 541.487H349.459C350.287 541.487 350.959 542.159 350.959 542.987V568C350.959 568.828 350.287 569.5 349.459 569.5H178.197C177.368 569.5 176.697 568.828 176.697 568V542.987Z" stroke="#BB86FC" stroke-width="5"/>
<path d="M77.1066 179.846C77.1066 179.018 77.7781 178.346 78.6066 178.346H446.393C447.222 178.346 447.893 179.018 447.893 179.846V439.91C447.893 440.739 447.222 441.41 446.393 441.41H78.6066C77.7781 441.41 77.1066 440.739 77.1066 439.91V179.846Z" stroke="#BB86FC" stroke-width="5"/>
<path d="M107 205C107 204.448 107.448 204 108 204H117C117.552 204 118 204.448 118 205C118 205.552 117.552 206 117 206H108C107.448 206 107 205.552 107 205Z" fill="#BB86FC" stroke="#BB86FC" stroke-width="4"/>
<path d="M107 231C107 230.448 107.448 230 108 230H117C117.552 230 118 230.448 118 231C118 231.552 117.552 232 117 232H108C107.448 232 107 231.552 107 231Z" fill="#BB86FC" stroke="#BB86FC" stroke-width="4"/>
<path d="M107 257C107 256.448 107.448 256 108 256H117C117.552 256 118 256.448 118 257C118 257.552 117.552 258 117 258H108C107.448 258 107 257.552 107 257Z" fill="#BB86FC" stroke="#BB86FC" stroke-width="4"/>
<path d="M107 283C107 282.448 107.448 282 108 282H117C117.552 282 118 282.448 118 283C118 283.552 117.552 284 117 284H108C107.448 284 107 283.552 107 283Z" fill="#BB86FC" stroke="#BB86FC" stroke-width="4"/>
<path d="M107 309C107 308.448 107.448 308 108 308H117C117.552 308 118 308.448 118 309C118 309.552 117.552 310 117 310H108C107.448 310 107 309.552 107 309Z" fill="#BB86FC" stroke="#BB86FC" stroke-width="4"/>
<path d="M107 335C107 334.448 107.448 334 108 334H117C117.552 334 118 334.448 118 335C118 335.552 117.552 336 117 336H108C107.448 336 107 335.552 107 335Z" fill="#BB86FC" stroke="#BB86FC" stroke-width="4"/>
<path d="M107 361C107 360.448 107.448 360 108 360H117C117.552 360 118 360.448 118 361C118 361.552 117.552 362 117 362H108C107.448 362 107 361.552 107 361Z" fill="#BB86FC" stroke="#BB86FC" stroke-width="4"/>
<path d="M107 387C107 386.448 107.448 386 108 386H117C117.552 386 118 386.448 118 387C118 387.552 117.552 388 117 388H108C107.448 388 107 387.552 107 387Z" fill="#BB86FC" stroke="#BB86FC" stroke-width="4"/>
<path d="M107 413C107 412.448 107.448 412 108 412H117C117.552 412 118 412.448 118 413C118 413.552 117.552 414 117 414H108C107.448 414 107 413.552 107 413Z" fill="#BB86FC" stroke="#BB86FC" stroke-width="4"/>
<path d="M148 205C148 204.448 148.448 204 149 204H193C193.552 204 194 204.448 194 205C194 205.552 193.552 206 193 206H149C148.448 206 148 205.552 148 205Z" fill="#BB86FC" stroke="#BB86FC" stroke-width="4"/>
<path d="M211 205C211 204.448 211.448 204 212 204H237C237.552 204 238 204.448 238 205C238 205.552 237.552 206 237 206H212C211.448 206 211 205.552 211 205Z" fill="#BB86FC" stroke="#BB86FC" stroke-width="4"/>
<path d="M148 231C148 230.448 148.448 230 149 230H177C177.552 230 178 230.448 178 231C178 231.552 177.552 232 177 232H149C148.448 232 148 231.552 148 231Z" fill="#BB86FC" stroke="#BB86FC" stroke-width="4"/>
<path d="M148 257C148 256.448 148.448 256 149 256H177C177.552 256 178 256.448 178 257C178 257.552 177.552 258 177 258H149C148.448 258 148 257.552 148 257Z" fill="#BB86FC" stroke="#BB86FC" stroke-width="4"/>
<path d="M194 257C194 256.448 194.448 256 195 256H234C234.552 256 235 256.448 235 257C235 257.552 234.552 258 234 258H195C194.448 258 194 257.552 194 257Z" fill="#BB86FC" stroke="#BB86FC" stroke-width="4"/>
<path d="M251 257C251 256.448 251.448 256 252 256H291C291.552 256 292 256.448 292 257C292 257.552 291.552 258 291 258H252C251.448 258 251 257.552 251 257Z" fill="#BB86FC" stroke="#BB86FC" stroke-width="4"/>
<path d="M148 280C148 279.448 148.448 279 149 279H189C189.552 279 190 279.448 190 280C190 280.552 189.552 281 189 281H149C148.448 281 148 280.552 148 280Z" fill="#BB86FC" stroke="#BB86FC" stroke-width="4"/>
<path d="M205 280C205 279.448 205.448 279 206 279H246C246.552 279 247 279.448 247 280C247 280.552 246.552 281 246 281H206C205.448 281 205 280.552 205 280Z" fill="#BB86FC" stroke="#BB86FC" stroke-width="4"/>
<path d="M265 280C265 279.448 265.448 279 266 279H362C362.552 279 363 279.448 363 280C363 280.552 362.552 281 362 281H266C265.448 281 265 280.552 265 280Z" fill="#BB86FC" stroke="#BB86FC" stroke-width="4"/>
<path d="M147 309C147 308.448 147.448 308 148 308H244C244.552 308 245 308.448 245 309C245 309.552 244.552 310 244 310H148C147.448 310 147 309.552 147 309Z" fill="#BB86FC" stroke="#BB86FC" stroke-width="4"/>
<path d="M148 335C148 334.448 148.448 334 149 334H189C189.552 334 190 334.448 190 335C190 335.552 189.552 336 189 336H149C148.448 336 148 335.552 148 335Z" fill="#BB86FC" stroke="#BB86FC" stroke-width="4"/>
<path d="M261 361C261 360.448 261.448 360 262 360H302C302.552 360 303 360.448 303 361C303 361.552 302.552 362 302 362H262C261.448 362 261 361.552 261 361Z" fill="#BB86FC" stroke="#BB86FC" stroke-width="4"/>
<path d="M319 361C319 360.448 319.448 360 320 360H388C388.552 360 389 360.448 389 361C389 361.552 388.552 362 388 362H320C319.448 362 319 361.552 319 361Z" fill="#BB86FC" stroke="#BB86FC" stroke-width="4"/>
<path d="M148 361C148 360.448 148.448 360 149 360H169C169.552 360 170 360.448 170 361C170 361.552 169.552 362 169 362H149C148.448 362 148 361.552 148 361Z" fill="#BB86FC" stroke="#BB86FC" stroke-width="4"/>
<path d="M148 387C148 386.448 148.448 386 149 386H180C180.552 386 181 386.448 181 387C181 387.552 180.552 388 180 388H149C148.448 388 148 387.552 148 387Z" fill="#BB86FC" stroke="#BB86FC" stroke-width="4"/>
<path d="M148 413C148 412.448 148.448 412 149 412H167C167.552 412 168 412.448 168 413C168 413.552 167.552 414 167 414H149C148.448 414 148 413.552 148 413Z" fill="#BB86FC" stroke="#BB86FC" stroke-width="4"/>
<path d="M184 413C184 412.448 184.448 412 185 412H256C256.552 412 257 412.448 257 413C257 413.552 256.552 414 256 414H185C184.448 414 184 413.552 184 413Z" fill="#BB86FC" stroke="#BB86FC" stroke-width="4"/>
<path d="M273 413C273 412.448 273.448 412 274 412H290C290.552 412 291 412.448 291 413C291 413.552 290.552 414 290 414H274C273.448 414 273 413.552 273 413Z" fill="#BB86FC" stroke="#BB86FC" stroke-width="4"/>
<path d="M307 413C307 412.448 307.448 412 308 412H377C377.552 412 378 412.448 378 413C378 413.552 377.552 414 377 414H308C307.448 414 307 413.552 307 413Z" fill="#BB86FC" stroke="#BB86FC" stroke-width="4"/>
<path d="M394 413C394 412.448 394.448 412 395 412H408C408.552 412 409 412.448 409 413C409 413.552 408.552 414 408 414H395C394.448 414 394 413.552 394 413Z" fill="#BB86FC" stroke="#BB86FC" stroke-width="4"/>
<path d="M197 387C197 386.448 197.448 386 198 386H212C212.552 386 213 386.448 213 387C213 387.552 212.552 388 212 388H198C197.448 388 197 387.552 197 387Z" fill="#BB86FC" stroke="#BB86FC" stroke-width="4"/>
<path d="M229 387C229 386.448 229.448 386 230 386H277C277.552 386 278 386.448 278 387C278 387.552 277.552 388 277 388H230C229.448 388 229 387.552 229 387Z" fill="#BB86FC" stroke="#BB86FC" stroke-width="4"/>
<path d="M294 387C294 386.448 294.448 386 295 386H309C309.552 386 310 386.448 310 387C310 387.552 309.552 388 309 388H295C294.448 388 294 387.552 294 387Z" fill="#BB86FC" stroke="#BB86FC" stroke-width="4"/>
<path d="M326 387C326 386.448 326.448 386 327 386H358C358.552 386 359 386.448 359 387C359 387.552 358.552 388 358 388H327C326.448 388 326 387.552 326 387Z" fill="#BB86FC" stroke="#BB86FC" stroke-width="4"/>
<path d="M185 361C185 360.448 185.448 360 186 360H206C206.552 360 207 360.448 207 361C207 361.552 206.552 362 206 362H186C185.448 362 185 361.552 185 361Z" fill="#BB86FC" stroke="#BB86FC" stroke-width="4"/>
<path d="M223 361C223 360.448 223.448 360 224 360H244C244.552 360 245 360.448 245 361C245 361.552 244.552 362 244 362H224C223.448 362 223 361.552 223 361Z" fill="#BB86FC" stroke="#BB86FC" stroke-width="4"/>
<path d="M206 335C206 334.448 206.448 334 207 334H247C247.552 334 248 334.448 248 335C248 335.552 247.552 336 247 336H207C206.448 336 206 335.552 206 335Z" fill="#BB86FC" stroke="#BB86FC" stroke-width="4"/>
<path d="M264 335C264 334.448 264.448 334 265 334H305C305.552 334 306 334.448 306 335C306 335.552 305.552 336 305 336H265C264.448 336 264 335.552 264 335Z" fill="#BB86FC" stroke="#BB86FC" stroke-width="4"/>
<path d="M261 309C261 308.448 261.448 308 262 308H301C301.552 308 302 308.448 302 309C302 309.552 301.552 310 301 310H262C261.448 310 261 309.552 261 309Z" fill="#BB86FC" stroke="#BB86FC" stroke-width="4"/>
<path d="M318 309C318 308.448 318.448 308 319 308H358C358.552 308 359 308.448 359 309C359 309.552 358.552 310 358 310H319C318.448 310 318 309.552 318 309Z" fill="#BB86FC" stroke="#BB86FC" stroke-width="4"/>
<path d="M194 231C194 230.448 194.448 230 195 230H210C210.552 230 211 230.448 211 231C211 231.552 210.552 232 210 232H195C194.448 232 194 231.552 194 231Z" fill="#BB86FC" stroke="#BB86FC" stroke-width="4"/>
<path d="M232 231C232 230.448 232.448 230 233 230H271C271.552 230 272 230.448 272 231C272 231.552 271.552 232 271 232H233C232.448 232 232 231.552 232 231Z" fill="#BB86FC" stroke="#BB86FC" stroke-width="4"/>
<path d="M293 231C293 230.448 293.448 230 294 230H397C397.552 230 398 230.448 398 231C398 231.552 397.552 232 397 232H294C293.448 232 293 231.552 293 231Z" fill="#BB86FC" stroke="#BB86FC" stroke-width="4"/>
<path d="M255 205C255 204.448 255.448 204 256 204H300C300.552 204 301 204.448 301 205C301 205.552 300.552 206 300 206H256C255.448 206 255 205.552 255 205Z" fill="#BB86FC" stroke="#BB86FC" stroke-width="4"/>
<path d="M318 205C318 204.448 318.448 204 319 204H342C342.552 204 343 204.448 343 205C343 205.552 342.552 206 342 206H319C318.448 206 318 205.552 318 205Z" fill="#BB86FC" stroke="#BB86FC" stroke-width="4"/>
<path d="M360 205C360 204.448 360.448 204 361 204H422C422.552 204 423 204.448 423 205C423 205.552 422.552 206 422 206H361C360.448 206 360 205.552 360 205Z" fill="#BB86FC" stroke="#BB86FC" stroke-width="4"/>
<rect x="820" y="525" width="106" height="45" fill="#BB86FC" stroke="#AA65FF" stroke-width="4"/>
<path d="M4.5 576C4.5 575.172 5.17157 574.5 6 574.5H1248C1248.83 574.5 1249.5 575.172 1249.5 576V658C1249.5 658.828 1248.83 659.5 1248 659.5H5.99999C5.17157 659.5 4.5 658.828 4.5 658V576Z" fill="#AA65FF" stroke="#AA65FF" stroke-width="5"/>
<rect x="762.781" y="381.05" width="36" height="158" transform="rotate(-37 762.781 381.05)" fill="#BB86FC" stroke="#AA65FF" stroke-width="4"/>
<circle cx="873.446" cy="497.999" r="23" transform="rotate(-37 873.446 497.999)" fill="#BB86FC" stroke="#AA65FF" stroke-width="4"/>
<rect x="637.823" y="451.351" width="36.0001" height="158" transform="rotate(-114.5 637.823 451.351)" fill="#BB86FC" stroke="#AA65FF" stroke-width="4"/>
<circle cx="775.952" cy="368.62" r="23.0001" transform="rotate(-114.5 775.952 368.62)" fill="#BB86FC" stroke="#AA65FF" stroke-width="4"/>
<rect x="647.397" y="468.318" width="36" height="31" transform="rotate(178.5 647.397 468.318)" fill="#BB86FC" stroke="#AA65FF" stroke-width="4"/>
<path d="M605.804 484.412L607.06 532.396L592.065 532.788L590.521 473.809L668.494 471.767L670.039 530.747L656.044 531.113L654.787 483.13L654.735 481.13L652.735 481.183L607.751 482.361L605.751 482.413L605.804 484.412Z" fill="#AA65FF" stroke="#AA65FF" stroke-width="4"/>
<circle cx="628.539" cy="435.8" r="23.0001" transform="rotate(178.5 628.539 435.8)" fill="#BB86FC" stroke="#AA65FF" stroke-width="4"/>
<circle cx="630.76" cy="519.19" r="20.5" transform="rotate(13.5 630.76 519.19)" fill="#73C9E4" stroke="#41A1C1" stroke-width="4"/>
</svg>

<svg width="1465" height="662" fill="none" xmlns="http://www.w3.org/2000/svg"><path d="M62.5 170a7.5 7.5 0 017.5-7.5h385a7.5 7.5 0 017.5 7.5v303.526a7.5 7.5 0 01-7.5 7.5H70a7.5 7.5 0 01-7.5-7.5V170zM211.766 541.5l6.072-60h88.179l10.03 60H211.766z" stroke="#BB86FC" stroke-width="5"/><path d="M176.697 542.987a1.5 1.5 0 011.5-1.5h171.262a1.5 1.5 0 011.5 1.5V568a1.5 1.5 0 01-1.5 1.5H178.197a1.5 1.5 0 01-1.5-1.5v-25.013zM77.107 179.846a1.5 1.5 0 011.5-1.5h367.786a1.5 1.5 0 011.5 1.5V439.91a1.5 1.5 0 01-1.5 1.5H78.607a1.5 1.5 0 01-1.5-1.5V179.846z" stroke="#BB86FC" stroke-width="5"/><path d="M107 205a1 1 0 011-1h9a1 1 0 010 2h-9a1 1 0 01-1-1zM107 231a1 1 0 011-1h9a1 1 0 010 2h-9a1 1 0 01-1-1zM107 257a1 1 0 011-1h9a1 1 0 010 2h-9a1 1 0 01-1-1zM107 283a1 1 0 011-1h9a1 1 0 010 2h-9a1 1 0 01-1-1zM107 309a1 1 0 011-1h9a1 1 0 010 2h-9a1 1 0 01-1-1zM107 335a1 1 0 011-1h9a1 1 0 010 2h-9a1 1 0 01-1-1zM107 361a1 1 0 011-1h9a1 1 0 010 2h-9a1 1 0 01-1-1zM107 387a1 1 0 011-1h9a1 1 0 010 2h-9a1 1 0 01-1-1zM107 413a1 1 0 011-1h9a1 1 0 010 2h-9a1 1 0 01-1-1zM148 205a1 1 0 011-1h44a1 1 0 010 2h-44a1 1 0 01-1-1zM211 205a1 1 0 011-1h25a1 1 0 010 2h-25a1 1 0 01-1-1zM148 231a1 1 0 011-1h28a1 1 0 010 2h-28a1 1 0 01-1-1zM148 257a1 1 0 011-1h28a1 1 0 010 2h-28a1 1 0 01-1-1zM194 257a1 1 0 011-1h39a1 1 0 010 2h-39a1 1 0 01-1-1zM251 257a1 1 0 011-1h39a1 1 0 010 2h-39a1 1 0 01-1-1zM148 280a1 1 0 011-1h40a1 1 0 010 2h-40a1 1 0 01-1-1zM205 280a1 1 0 011-1h40a1 1 0 010 2h-40a1 1 0 01-1-1zM265 280a1 1 0 011-1h96a1 1 0 010 2h-96a1 1 0 01-1-1zM147 309a1 1 0 011-1h96a1 1 0 010 2h-96a1 1 0 01-1-1zM148 335a1 1 0 011-1h40a1 1 0 010 2h-40a1 1 0 01-1-1zM261 361a1 1 0 011-1h40a1 1 0 010 2h-40a1 1 0 01-1-1zM319 361a1 1 0 011-1h68a1 1 0 010 2h-68a1 1 0 01-1-1zM148 361a1 1 0 011-1h20a1 1 0 010 2h-20a1 1 0 01-1-1zM148 387a1 1 0 011-1h31a1 1 0 010 2h-31a1 1 0 01-1-1zM148 413a1 1 0 011-1h18a1 1 0 010 2h-18a1 1 0 01-1-1zM184 413a1 1 0 011-1h71a1 1 0 010 2h-71a1 1 0 01-1-1zM273 413a1 1 0 011-1h16a1 1 0 010 2h-16a1 1 0 01-1-1zM307 413a1 1 0 011-1h69a1 1 0 010 2h-69a1 1 0 01-1-1zM394 413a1 1 0 011-1h13a1 1 0 010 2h-13a1 1 0 01-1-1zM197 387a1 1 0 011-1h14a1 1 0 010 2h-14a1 1 0 01-1-1zM229 387a1 1 0 011-1h47a1 1 0 010 2h-47a1 1 0 01-1-1zM294 387a1 1 0 011-1h14a1 1 0 010 2h-14a1 1 0 01-1-1zM326 387a1 1 0 011-1h31a1 1 0 010 2h-31a1 1 0 01-1-1zM185 361a1 1 0 011-1h20a1 1 0 010 2h-20a1 1 0 01-1-1zM223 361a1 1 0 011-1h20a1 1 0 010 2h-20a1 1 0 01-1-1zM206 335a1 1 0 011-1h40a1 1 0 010 2h-40a1 1 0 01-1-1zM264 335a1 1 0 011-1h40a1 1 0 010 2h-40a1 1 0 01-1-1zM261 309a1 1 0 011-1h39a1 1 0 010 2h-39a1 1 0 01-1-1zM318 309a1 1 0 011-1h39a1 1 0 010 2h-39a1 1 0 01-1-1zM194 231a1 1 0 011-1h15a1 1 0 010 2h-15a1 1 0 01-1-1zM232 231a1 1 0 011-1h38a1 1 0 010 2h-38a1 1 0 01-1-1zM293 231a1 1 0 011-1h103a1 1 0 010 2H294a1 1 0 01-1-1zM255 205a1 1 0 011-1h44a1 1 0 010 2h-44a1 1 0 01-1-1zM318 205a1 1 0 011-1h23a1 1 0 010 2h-23a1 1 0 01-1-1zM360 205a1 1 0 011-1h61a1 1 0 010 2h-61a1 1 0 01-1-1z" fill="#BB86FC" stroke="#BB86FC" stroke-width="4"/><path fill="#BB86FC" stroke="#AA65FF" stroke-width="4" d="M820 525h106v45H820z"/><path d="M4.5 576a1.5 1.5 0 011.5-1.5h1242c.83 0 1.5.672 1.5 1.5v82a1.5 1.5 0 01-1.5 1.5H6a1.5 1.5 0 01-1.5-1.5v-82z" fill="#AA65FF" stroke="#AA65FF" stroke-width="5"/><path fill="#BB86FC" stroke="#AA65FF" stroke-width="4" d="M762.781 381.05l28.75-21.665 95.088 126.184-28.751 21.665z"/><circle cx="873.446" cy="497.999" r="23" transform="rotate(-37 873.446 497.999)" fill="#BB86FC" stroke="#AA65FF" stroke-width="4"/><path fill="#BB86FC" stroke="#AA65FF" stroke-width="4" d="M637.823 451.351l-14.929-32.759 143.774-65.521 14.929 32.758z"/><circle cx="775.952" cy="368.62" r="23" transform="rotate(-114.5 775.952 368.62)" fill="#BB86FC" stroke="#AA65FF" stroke-width="4"/><path fill="#BB86FC" stroke="#AA65FF" stroke-width="4" d="M647.397 468.318l-35.988.942-.811-30.989 35.988-.942z"/><path d="M605.804 484.412l1.256 47.984-14.995.392-1.544-58.979 77.973-2.042 1.545 58.98-13.995.366-1.257-47.983-.052-2-2 .053-44.984 1.178-2 .052.053 1.999z" fill="#AA65FF" stroke="#AA65FF" stroke-width="4"/><circle cx="628.539" cy="435.8" r="23" transform="rotate(178.5 628.539 435.8)" fill="#BB86FC" stroke="#AA65FF" stroke-width="4"/><circle cx="630.76" cy="519.19" r="20.5" transform="rotate(13.5 630.76 519.19)" fill="#73C9E4" stroke="#41A1C1" stroke-width="4"/></svg>
